X:161
T:John's Reel
M:4/4
L:1/8
C:Frederick E. Wilson copyright 2005
R:Reel
K:DMix
"D"d2 df e2de| fage f2ed|
"C"c2cd e2g2| "D"fedf "A"e2de|"D"f2fa "C"g2fg| "D"ad'c'a "C"g2fg|
"D"f2d2 "C"edc2|"A"A2de "D"d4:|
"D"ad'c'a "C"g2fg|"D"f2fd "C"e2fg|"D"ad'c'a "C"g2fg| "D"fed2 "C"e2dc|
"A"A2 df "C"e2de|"D"fad'a "C"c'bag|"A"f2df edc2|A2de "D"d4:|
